src/svgSprites/icon_box.svg

<svg xmlns="http://www.w3.org/2000/svg" viewBox="0 0 57 42"><path d="M55 0H2a2 2 0 0 0-2 2v8a2 2 0 0 0 2 2h1v28a2 2 0 0 0 2 2h46a2 2 0 0 0 2-2V12h2a2 2 0 0 0 2-2V2a2 2 0 0 0-2-2zM35 2v23s-6-4.12-6-4-8 5-8 5V2zm20 6v2h-4v30H5V10H2V2h17v8H9a1 1 0 0 0 0 2h10v17s10-4.92 10-5 8 5 8 5V12h10a1 1 0 0 0 0-2H37V2h18z" fill="#d7569c" data-name="Layer 2"/></svg>

<svg xmlns="http://www.w3.org/2000/svg" viewBox="0 0 57 42"><defs><style>.cls-1{fill:#d7569c;}</style></defs><title>icon_box</title><g id="Layer_2" data-name="Layer 2"><g id="delivery"><g id="icon_box"><path class="cls-1" d="M55,0H2A2,2,0,0,0,0,2v8a2,2,0,0,0,2,2H3V40a2,2,0,0,0,2,2H51a2,2,0,0,0,2-2V12h2a2,2,0,0,0,2-2V2A2,2,0,0,0,55,0ZM35,2V25s-6-4.12-6-4-8,5-8,5V11h0V2ZM55,8v2H51V40H5V10H2V2H19v8H9a1,1,0,0,0,0,2H19V29s10-4.92,10-5,8,5,8,5V12H47a1,1,0,0,0,0-2H37V2H55Z"/></g></g></g></svg>
